!!!!SEGMENT: Con2013-Adiuva_me_Domine.krn
!!!id: Con2013
!!!AGN: Motet
!!!SCT: Merritt (1962)
!!!voices: 4
!!!COM: Jean Conseil
!!!OTL: Adiuva me, Domine
**kern	**kern	**kern	**kern
*part4	*part3	*part2	*part1
*staff4	*staff3	*staff2	*staff1
*I"Bassus	*I"Tenor	*I"Altus	*I"Superius
*I'B	*I'T	*I'A	*I'S
*clefF4	*clefGv2	*clefGv2	*clefG2
*k[b-]	*k[b-]	*k[b-]	*k[b-]
*F:	*F:	*F:	*F:
*M2/1	*M2/1	*M2/1	*M2/1
*met(C|)	*met(C|)	*met(C|)	*met(C|)
!!Section: Prima pars: Adiuva me, Domine
!!!OMD: Prima pars: Adiuva me, Domine
=1	=1	=1	=1
0r	0r	1.g	1r
.	.	.	[1dd
.	.	2g	.
=2	=2	=2	=2
0r	0r	1f	2dd]
.	.	.	2cc
.	.	1g	1b-y
=3	=3	=3	=3
1r	0r	1.d	2a
.	.	.	2.b-y
[1G	.	.	.
.	.	.	4a
.	.	2c	4g
.	.	.	4f
=4	=4	=4	=4
2G]	1.d	4B-y	2g
.	.	4c	.
2G	.	4d	1b-y
.	.	4e	.
1F	.	1f	.
.	2c	.	[2a
=5	=5	=5	=5
1G	1B-y	2.d	2a]
.	.	.	2g
.	.	4e	.
1D	2A	1f	2a
.	[2B-y	.	2dd
=6	=6	=6	=6
1.E-X	4B-]	2e	2cc
.	4A	.	.
.	4G	1d	1b-y
.	4F	.	.
.	2G	.	.
2E-i	2G	2c	4a
.	.	.	4g
=7	=7	=7	=7
1D	0A	1d	1f
1D	.	1d	1f
=8	=8	=8	=8
4BB-y	1d	1f	1b-y
4C	.	.	.
4D	.	.	.
4E	.	.	.
2F	2c	2f	4a
.	.	.	4b-y
2C	2e	2g	4cc
.	.	.	4a
=9	=9	=9	=9
2.D	1d	1.f	2b-y
.	.	.	2.a
4E	.	.	.
2F	4c	.	.
.	4B-y	.	4g
2G	4A	2d	[2g
.	4G	.	.
=10	=10	=10	=10
1D	1A	1d	2g]
.	.	.	2f#i
2r	1G	[1B-y	[1g
[2G	.	.	.
=11	=11	=11	=11
2G]	1d	1B-]	1g]
2G	.	.	.
2F	2d	1r	1r
2E	2c	.	.
=12	=12	=12	=12
1D	2B-y	0r	0r
.	2.A	.	.
2r	.	.	.
.	4G	.	.
2D	4F	.	.
.	4E	.	.
=13	=13	=13	=13
2.F	4D	1r	0r
.	4E	.	.
.	4F	.	.
4E	4G	.	.
2D	4A	2r	.
.	4B-y	.	.
2C	2c	2G	.
=14	=14	=14	=14
2D	2F	2.B-y	0r
2BB-y	1B-y	.	.
.	.	4A	.
2C	.	2G	.
2D	2A	2F	.
=15	=15	=15	=15
2GG	1B-y	2G	0r
2.BB-y	.	2D	.
.	1r	2.F	.
4C	.	.	.
[2D	.	.	.
.	.	4G	.
=16	=16	=16	=16
4D]	0r	2A	2r
4C	.	.	.
4BB-y	.	2.B-y	1dd
4AA	.	.	.
2GG	.	.	.
.	.	4A	.
2BB-y	.	[2G	2dd
=17	=17	=17	=17
1AA	0r	2G]	2cc
.	.	2F#i	2cc
[1GG	.	[1G	1b-y
=18	=18	=18	=18
1GG]	1r	1G]	2r
.	.	.	2g
1r	2r	1r	2.b-y
.	2G	.	.
.	.	.	4a
=19	=19	=19	=19
0r	2.B-y	0r	2g
.	.	.	2f
.	4A	.	.
.	2G	.	2g
.	2F	.	2a
=20	=20	=20	=20
1r	2G	2r	4d
.	.	.	4e
.	2A	2c	4f
.	.	.	4g
2r	4D	2.f	[1a
.	4E	.	.
2D	4F	.	.
.	4G	4e	.
=21	=21	=21	=21
2.F	1A	2d	2a]
.	.	2c	4f
4E	.	.	4g
2D	2F	2f	4a
.	.	.	4b-y
2C	4G	2e	2cc
.	4A	.	.
=22	=22	=22	=22
2D	4B-y	4d	2f
.	4c	4c	.
4GG	1d	4B-y	1b-y
4AA	.	4A	.
4BB-y	.	2G	.
4C	.	.	.
4D	2d	2F	4a
4E	.	.	4g
=23	=23	=23	=23
2F	2c	2f	2a
2G	4B-y	2d	2b-y
.	4A	.	.
2C	1G	2e	4cc
.	.	.	4b-y
2E	.	2c	4a
.	.	.	4g
=24	=24	=24	=24
2D	2A	2d	4f
.	.	.	4g
2C	2.c	1e-X	4a
.	.	.	4b-y
1E	.	.	4a
.	4B-y	.	4g
.	4A	2c	[2g
.	4G	.	.
=25	=25	=25	=25
1D	1A	1d	2g]
.	.	.	2f#i
1GG	1G	1B-y	1g
=26	=26	=26	=26
1r	1r	1r	1r
1G	[1G	1d	1b-y
=27	=27	=27	=27
1C	2G]	1e	1cc
.	2A	.	.
[1G	[1B-y	[1g	[1dd
=28	=28	=28	=28
2G]	2B-]	2g]	2dd]
4F	4A	2g	2dd
4E	4G	.	.
2D	2A	1f	1dd
2D	2B-y	.	.
=29	=29	=29	=29
2C	2c	1g	1ee
2C	2c	.	.
1D	1A	1f	1dd
=30	=30	=30	=30
0G	0B-y	2r	0dd
.	.	2d	.
.	.	[1g	.
=31	=31	=31	=31
1E-X	1G	1g]	1cc
[1D	[1A	1f	[1dd
=32	=32	=32	=32
1D]	1A]	2r	1dd]
.	.	2d	.
1r	1r	2d	2r
.	.	[2f	2a
=33	=33	=33	=33
0r	0r	2f]	2cc
.	.	2e	2cc
.	.	2d	2b-y
.	.	2c	[2a
=34	=34	=34	=34
0r	0r	4d	4a]
.	.	4c	4g
.	.	4d	4f
.	.	4e	4e
.	.	2f	4d
.	.	.	4e
.	.	[2d	4f
.	.	.	4g
=35	=35	=35	=35
0r	0r	4d]	4a
.	.	4e	4g
.	.	4f	4a
.	.	4d	4b-y
.	.	4e	2cc
.	.	4d	.
.	.	4c	2b-y
.	.	4B-y	.
=36	=36	=36	=36
1r	1r	1c	2b-y
.	.	.	2a
2r	2r	2B-y	2b-y
[2G	[2d	[2g	[2b-y
=37	=37	=37	=37
2G]	2d]	2g]	2b-]
2B-y	2d	2f	2b-y
2F	2c	2f	2a
2G	2B-y	2d	2g
=38	=38	=38	=38
2D	2A	1d	2.f
1F	4D	.	.
.	4E	.	4g
.	4F	4c	4a
.	4G	4d	4b-y
4C	4A	4e	2cc
4D	4B-y	4f	.
=39	=39	=39	=39
4E	2c	1g	2.g
4F	.	.	.
1G	4B-y	.	.
.	4c	.	4a
.	4d	2G	4b-y
.	4e	.	4a
2F	4f	2A	[2cc
.	4d	.	.
=40	=40	=40	=40
2G	4e	4B-y	4cc]
.	4d	4c	4b-y
2G	4c	4d	1b-y
.	4B-y	4e	.
1F	1c	1f	.
.	.	.	2a
=41	=41	=41	=41
0BB-y	1B-y	1d	1b-y
.	2r	2r	2r
.	[2B-y	[2d	[2dd
=42	=42	=42	=42
0r	2B-]	2d]	2dd]
.	2B-y	2d	2dd
.	2A	2e	2cc
.	2G	[2g	2b-y
=43	=43	=43	=43
1r	1d	2g]	1a
.	.	2f#i	.
2r	2G	1g	1g
[2G	[2d	.	.
=44	=44	=44	=44
2G]	2d]	0r	0r
2B-y	2d	.	.
2A	2c	.	.
[2G	2B-y	.	.
=45	=45	=45	=45
2G]	1A	1r	1r
2F#i	.	.	.
2G	2G	2r	2r
2G	2d	2g	2b-y
=46	=46	=46	=46
1G	1d	1g	1b-y
1C	1e	1g	1cc
=47	=47	=47	=47
1F	1c	1f	1a
2D	[1d	2f	2a
2D	.	2f	2a
=48	=48	=48	=48
1.G	2d]	2g	2.b-y
.	2c	2g	.
.	.	.	4a
.	2B-y	1d	[1g
2F	2A	.	.
=49	=49	=49	=49
2E	2G	1c	2g]
2E	2G	.	2g
1D	1A	1d	1f
=50	=50	=50	=50
2r	2r	2r	2r
2G	2G	2g	2b-y
1G	1d	1g	1b-y
=51	=51	=51	=51
1C	1e	1g	1cc
1F	1c	1f	1a
=52	=52	=52	=52
2D	2d	2f	2a
2D	2d	2f	2a
[1G	2B-y	[1d	2.b-y
.	4G	.	.
.	4A	.	4a
=53	=53	=53	=53
2G]	4B-y	2d]	2g
.	4c	.	.
2F	4d	2A	2.a
.	4B-y	.	.
1E	4c	2B-y	.
.	4B-y	.	4g
.	4A	2c	[2g
.	4G	.	.
=54	=54	=54	=54
1D	2A	1d	2g]
.	2A	.	2f#i
[1GG	[1G	[1B-y	[1g
=	=	=	=
00GG]	00G]	00B-]	00g]
=||	=||	=||	=||
*M2/1	*M2/1	*M2/1	*M2/1
*met(C|)	*met(C|)	*met(C|)	*met(C|)
!!Section: Secunda pars: Servus tuus
!!!OMD: Secunda pars: Servus tuus
0BB-y	0B-y	0f	0dd
=55	=55	=55	=55
1F	1A	1f	1cc
1G	1B-y	1d	1b-y
=56	=56	=56	=56
1.F	1.c	1.f	1.a
2BB-y	[2d	2f	[2b-y
=57	=57	=57	=57
1F	4d]	1f	4b-]
.	4c	.	4a
.	4B-y	.	1a
.	4A	.	.
1G	1B-y	1d	.
.	.	.	2g
=58	=58	=58	=58
0D	1A	0d	0a
.	2r	.	.
.	2A	.	.
=59	=59	=59	=59
2r	2B-y	0r	0r
2D	2A	.	.
2D	1d	.	.
2BB-y	.	.	.
=60	=60	=60	=60
2C	2c	0r	0r
2D	1B-y	.	.
1GG	.	.	.
.	4A	.	.
.	4G	.	.
=61	=61	=61	=61
1D	2F	0r	0r
.	1B-y	.	.
2r	.	.	.
[2D	2A	.	.
=62	=62	=62	=62
2D]	2B-y	0r	0r
2C	2.c	.	.
2D	.	.	.
.	4B-y	.	.
2E	4A	.	.
.	4G	.	.
=63	=63	=63	=63
2F	2A	0r	0r
1G	2B-y	.	.
.	2A	.	.
2F	[2d	.	.
=64	=64	=64	=64
2G	4d]	0r	0r
.	4c	.	.
4GG	4B-y	.	.
4AA	4A	.	.
4BB-y	2G	.	.
4C	.	.	.
4D	4F	.	.
4E	4G	.	.
=65	=65	=65	=65
4F	4A	0r	0r
4G	4B-y	.	.
4A	4c	.	.
4F	4A	.	.
4G	4B-y	.	.
4F	4c	.	.
4E	[2d	.	.
4D	.	.	.
=66	=66	=66	=66
1E	2d]	0r	1r
.	2c#i	.	.
[1D	1d	.	2r
.	.	.	2a
=67	=67	=67	=67
1D]	0r	2r	2b-y
.	.	2d	2a
1r	.	2d	1dd
.	.	2B-y	.
=68	=68	=68	=68
0r	0r	2c	2cc
.	.	2d	1b-y
.	.	1G	.
.	.	.	4a
.	.	.	4g
=69	=69	=69	=69
0r	0r	1d	2f
.	.	.	1b-y
.	.	2r	.
.	.	2f	2a
=70	=70	=70	=70
0r	0r	2e	2g
.	.	2d	1dd
.	.	2.f	.
.	.	.	2cc
.	.	4e	.
=71	=71	=71	=71
0r	0r	2d	2b-y
.	.	2.e	2g
.	.	.	1b-y
.	.	4d	.
.	.	[2g	.
=72	=72	=72	=72
0r	0r	2g]	2a
.	.	2f	2.dd
.	.	2g	.
.	.	.	4cc
.	.	4G	4b-y
.	.	4A	4a
=73	=73	=73	=73
0r	0r	4B-y	2g
.	.	4c	.
.	.	4d	4f
.	.	4e	4g
.	.	4f	4a
.	.	4g	4b-y
.	.	4a	4cc
.	.	4f	4a
=74	=74	=74	=74
1r	1r	4g	4b-y
.	.	4f	4cc
.	.	4e	1dd
.	.	4d	.
1C	1G	1e	.
.	.	.	2cc
=75	=75	=75	=75
1G	1B-y	1d	0dd
2F	2A	1r	.
[2G	[2B-y	.	.
=76	=76	=76	=76
2G]	2B-]	1d	1r
4F	4A	.	.
4E	4G	.	.
2D	2d	1f	1a
2F	[2c	.	.
=77	=77	=77	=77
1C	4c]	2e	1cc
.	4B-y	.	.
.	4G	2e	.
.	4A	.	.
1r	2B-y	2d	2b-y
.	2A	2c	[2cc
=78	=78	=78	=78
0r	4F	1f	2cc]
.	4G	.	.
.	4A	.	4b-y
.	4B-y	.	4a
.	2c	2e	2g
.	2G	[2g	2b-y
=79	=79	=79	=79
1r	1d	4g]	4a
.	.	4f	4g
.	.	1f	4a
.	.	.	4b-y
2r	1r	.	4cc
.	.	.	4a
2B-y	.	4e	[2dd
.	.	4d	.
=80	=80	=80	=80
2G	1r	1e	2dd]
2A	.	.	2cc#i
2.B-y	2r	[1d	[1dd
.	2G	.	.
4A	.	.	.
=81	=81	=81	=81
4G	2.B-y	1d]	1dd]
4F	.	.	.
1G	.	.	.
.	4c	.	.
.	4d	1r	1r
.	4e	.	.
4F	[2f	.	.
4E	.	.	.
=82	=82	=82	=82
2D	4f]	0r	0r
.	4e	.	.
2.G	4d	.	.
.	4c	.	.
.	4B-y	.	.
4F	4A	.	.
4E	[2d	.	.
4D	.	.	.
=83	=83	=83	=83
1E	2d]	1r	2r
.	2c#i	.	2g
1D	1d	2r	2b-y
.	.	2d	[2a
=84	=84	=84	=84
1r	1r	2f	2a]
.	.	1e	2g
2r	2r	.	2a
[2D	[2d	2d	4d
.	.	.	4e
=85	=85	=85	=85
2D]	2d]	1.a	4f
.	.	.	4g
2D	2f	.	4a
.	.	.	4b-y
2A	2e	.	2cc
2B-y	2d	2g	[2dd
=86	=86	=86	=86
1A	1e	1a	2dd]
.	.	.	2cc#i
[1D	1d	1f	1dd
=87	=87	=87	=87
1D]	0r	2.d	2r
.	.	.	1a
.	.	4e	.
1r	.	2f	.
.	.	[2g	2b-y
=88	=88	=88	=88
0r	0r	2g]	2a
.	.	2f	2.dd
.	.	1g	.
.	.	.	4cc
.	.	.	4b-y
.	.	.	4a
=89	=89	=89	=89
1r	1r	2e	2g
.	.	1f	2a
2.D	2r	.	4d
.	.	.	4e
.	[2A	4e	4f
4E	.	4d	4g
=90	=90	=90	=90
2F	2A]	2c	2a
1G	2B-y	2d	2g
.	2A	2r	2e
2F	[2d	2A	2f
=91	=91	=91	=91
1G	4d]	2B-y	2d
.	4c	.	.
.	4B-y	2d	2g
.	4A	.	.
2C	2G	2e	2.cc
[2F	2A	2c	.
.	.	.	4b-y
=92	=92	=92	=92
4F]	4D	1f	4a
4E	4E	.	4g
1D	4F	.	2.f
.	4G	.	.
.	4A	2d	.
.	4B-y	.	4g
2C	2c	4e	4a
.	.	4f	4g
=93	=93	=93	=93
2G	2B-y	2g	2b-y
2A	2.c	2e	1a
2F	.	2f	.
.	4B-y	.	.
2G	4A	[2d	[2g
.	4G	.	.
=94	=94	=94	=94
1D	2A	4d]	2g]
.	.	4c	.
.	2A	8dL	2f#i
.	.	8c	.
.	.	8B-y	.
.	.	8AJ	.
1GG	1G	1B-y	1g
=95	=95	=95	=95
0r	0r	2.d	2r
.	.	.	1a
.	.	4e	.
.	.	2f	.
.	.	[2g	2b-y
=96	=96	=96	=96
0r	0r	2g]	2a
.	.	2f	2.dd
.	.	1g	.
.	.	.	4cc
.	.	.	4b-y
.	.	.	4a
=97	=97	=97	=97
1r	1r	2e	2g
.	.	1f	2a
2.D	2r	.	4d
.	.	.	4e
.	[2A	4e	4f
4E	.	4d	4g
=98	=98	=98	=98
2F	2A]	2c	2a
1G	2B-y	2d	2g
.	2A	2r	2e
2F	[2d	2A	2f
=99	=99	=99	=99
1G	4d]	2B-y	2d
.	4c	.	.
.	4B-y	2d	2g
.	4A	.	.
2C	2G	2e	2.cc
[2F	2A	2c	.
.	.	.	4b-y
=100	=100	=100	=100
4F]	4D	1f	4a
4E	4E	.	4g
1D	4F	.	2.f
.	4G	.	.
.	4A	2d	.
.	4B-y	.	4g
2C	2c	4e	4a
.	.	4f	4g
=101	=101	=101	=101
2G	2B-y	2g	2b-y
2A	2.c	2e	1a
2F	.	2f	.
.	4B-y	.	.
2G	4A	[2d	[2g
.	4G	.	.
=102	=102	=102	=102
1D	2A	4d]	2g]
.	.	4c	.
.	2A	8dL	2f#i
.	.	8c	.
.	.	8B-y	.
.	.	8AJ	.
1GG	1G	1B-y	1g
=103	=103	=103	=103
0r	0r	0r	0r
=104	=104	=104	=104
0G	0d	0g	0b-y
=105	=105	=105	=105
1G	1d	1g	1b-y
1E	1G	1g	1cc
=106	=106	=106	=106
1D	1A	0f	1dd
1BB-y	[1B-y	.	[1dd
=107	=107	=107	=107
1.E-i	1B-]	1.g	2dd]
.	.	.	4cc
.	.	.	4b-y
.	1G	.	1cc
2E-i	.	2g	.
=108	=108	=108	=108
1D	1A	1f	1dd
1r	1r	1r	1r
=109	=109	=109	=109
0BB-y	0d	0f	0b-y
=110	=110	=110	=110
1F	1c	1f	1a
1C	1e	1g	1cc
=111	=111	=111	=111
2.D	1d	1.f	2b-y
.	.	.	1a
4E	.	.	.
2F	2c	.	.
2G	2B-y	2d	[2g
=112	=112	=112	=112
1D	1A	1d	2g]
.	.	.	2f#i
[1GG	[1G	[1B-y	[1g
=113	=113	=113	=113
0GG]	0G]	0B-]	0g]
=114	=114	=114	=114
0G	0d	0g	0b-y
=115	=115	=115	=115
1G	1d	1g	1b-y
1E	1G	1g	1cc
=116	=116	=116	=116
1D	1A	0f	1dd
1BB-y	[1B-y	.	[1dd
=117	=117	=117	=117
1.E-i	1B-]	1.g	2dd]
.	.	.	4cc
.	.	.	4b-y
.	1G	.	1cc
2E-i	.	2g	.
=118	=118	=118	=118
1D	1A	1f	1dd
1r	1r	1r	1r
=119	=119	=119	=119
0BB-y	0d	0f	0b-y
=120	=120	=120	=120
1F	1c	1f	1a
1C	1e	1g	1cc
=121	=121	=121	=121
2.D	1d	1.f	2b-y
.	.	.	1a
4E	.	.	.
2F	2c	.	.
2G	2B-y	2d	[2g
=122	=122	=122	=122
1D	1A	1d	2g]
.	.	.	2f#i
[1GGl	[1Gl	[1B-yl	[1gl
=123	=123	=123	=123
00GG]	00G]	00B-]	00g]
==	==	==	==
*-	*-	*-	*-
!!!system-decoration: [*]
!!!RDF**kern: i = editorial accidental
!!!RDF**kern: l = terminal long
!!!ENC: Benjamin Ory
!!!END: 2023/10/30
!!!EED: Benjamin Ory
!!!EEV: 2023/10/30
!!!YEC: Copyright 2023 Benjamin Ory, All Rights Reserved
!!!ONB: Translated from MusicXML on 2023/10/30
